src/images/documents/svg/csv.svg

<svg fill="none" height="120" viewBox="0 0 80 120" width="80" xmlns="http://www.w3.org/2000/svg"><path d="m1 119v-118h58.5858l19.4142 19.4142v98.5858z" fill="#fff" stroke="#428542" stroke-width="2"/><g fill="#428542"><path d="m80 20-20-20v20z"/><path d="m10 65h12.5v5h-12.5z"/><path d="m25.833 64.9999h12.5v5h-12.5z"/><path d="m41.667 64.9999h12.5v5h-12.5z"/><path d="m57.5 64.9999h12.5v5h-12.5z"/><path d="m10 74.9999h12.5v5h-12.5z"/><path d="m25.833 74.9999h12.5v5h-12.5z"/><path d="m41.667 74.9999h12.5v5h-12.5z"/><path d="m57.5 74.9999h12.5v5h-12.5z"/><path d="m10 84.9999h12.5v5h-12.5z"/><path d="m25.833 84.9999h12.5v5h-12.5z"/><path d="m41.667 84.9999h12.5v5h-12.5z"/><path d="m57.5 84.9999h12.5v5h-12.5z"/><path d="m10 28h60v27h-60z"/></g><path d="m31.4893 43.8728h2.5549c-.0513.8374-.282 1.5808-.6921 2.2302-.4045.6494-.9713 1.1564-1.7005 1.521-.7235.3646-1.595.5469-2.6147.5469-.7976 0-1.5125-.1367-2.1448-.4102-.6323-.2791-1.1735-.6779-1.6235-1.1962-.4444-.5184-.7833-1.1451-1.0169-1.8799-.2336-.7349-.3503-1.5581-.3503-2.4695v-.863c0-.9115.1196-1.7347.3589-2.4695.2449-.7406.5924-1.3701 1.0424-1.8885.4558-.5184.9998-.9171 1.6321-1.1962.6323-.2792 1.3387-.4187 2.1192-.4187 1.0367 0 1.9112.1879 2.6232.5639.7178.376 1.2732.8944 1.6663 1.5552.3988.6608.638 1.4128.7178 2.2559h-2.5635c-.0285-.5014-.1282-.9257-.2991-1.2732-.1709-.3532-.4301-.6181-.7776-.7947-.3418-.1823-.7975-.2735-1.3671-.2735-.4273 0-.8004.0798-1.1194.2393s-.5868.4016-.8033.7263c-.2164.3247-.3788.7349-.487 1.2305-.1026.4899-.1538 1.0653-.1538 1.7261v.8801c0 .6437.0484 1.2105.1452 1.7004.0969.4842.245.8944.4444 1.2305.2051.3304.4671.5811.7861.7519.3247.1653.7149.2479 1.1707.2479.5354 0 .9769-.0855 1.3244-.2564s.6124-.4244.7947-.7605c.188-.3361.2991-.7548.3333-1.2561zm10.7153.8716c0-.2222-.0342-.4216-.1025-.5982-.0627-.1823-.1823-.3475-.3589-.4956-.1766-.1538-.4244-.3047-.7434-.4528-.3191-.1482-.7321-.302-1.2391-.4615-.5639-.1823-1.0994-.3873-1.6064-.6152-.5013-.2279-.9456-.4928-1.333-.7947-.3817-.3076-.6836-.6636-.9058-1.0681-.2164-.4045-.3247-.8744-.3247-1.4099 0-.5184.114-.9884.3418-1.4099.2279-.4273.5469-.7919.957-1.0938.4102-.3076.8944-.544 1.4527-.7092.5639-.1652 1.182-.2478 1.8542-.2478.9172 0 1.7176.1652 2.4012.4956.6835.3304 1.2133.7833 1.5893 1.3586.3817.5754.5725 1.2334.5725 1.9739h-2.5464c0-.3646-.0769-.6836-.2307-.957-.1481-.2791-.376-.4985-.6836-.658-.3019-.1595-.6836-.2392-1.145-.2392-.4443 0-.8146.0683-1.1108.2051-.2963.131-.5184.3104-.6665.5383-.1481.2221-.2222.4728-.2222.7519 0 .2108.0513.4016.1538.5725.1082.1709.2677.3304.4785.4786.2108.1481.47.2876.7776.4187.3076.131.6637.2592 1.0681.3845.6779.2051 1.2732.4358 1.7859.6921.5184.2564.9513.544 1.2988.8631.3475.319.6096.6807.7862 1.0852.1766.4044.2649.863.2649 1.3757 0 .5412-.1054 1.0254-.3162 1.4526-.2108.4273-.5155.789-.9143 1.0852-.3988.2963-.8744.5213-1.427.6751s-1.1707.2307-1.8543.2307c-.6152 0-1.2219-.0798-1.82-.2393-.5982-.1652-1.1422-.413-1.6321-.7434-.4842-.3304-.8716-.7519-1.1621-1.2646s-.4358-1.1194-.4358-1.8201h2.572c0 .3874.0598.7149.1795.9827.1196.2677.2876.4842.5041.6494.2222.1652.4842.2848.7861.3589.3077.074.6438.1111 1.0083.1111.4444 0 .809-.0627 1.0938-.188.2905-.1253.5041-.2991.6409-.5213.1424-.2221.2136-.4728.2136-.7519zm8.7927.6579 2.9309-9.8437h2.854l-4.3322 12.4414h-1.8799zm-2.7002-9.8437 2.9224 9.8437.4443 2.5977h-1.897l-4.3066-12.4414z" fill="#fff"/></svg>

<svg width="80" height="120" viewBox="0 0 80 120" fill="none" xmlns="http://www.w3.org/2000/svg">
<path d="M1 119V1H59.5858L79 20.4142V119H1Z" fill="white" stroke="#0065BD" stroke-width="2"/>
<path d="M80 20L60 0V20H80Z" fill="#0065BD"/>
<rect x="10" y="65" width="12.5" height="5" fill="#0065BD"/>
<rect x="25.833" y="64.9999" width="12.5" height="5" fill="#0065BD"/>
<rect x="41.667" y="64.9999" width="12.5" height="5" fill="#0065BD"/>
<rect x="57.5" y="64.9999" width="12.5" height="5" fill="#0065BD"/>
<rect x="10" y="74.9999" width="12.5" height="5" fill="#0065BD"/>
<rect x="25.833" y="74.9999" width="12.5" height="5" fill="#0065BD"/>
<rect x="41.667" y="74.9999" width="12.5" height="5" fill="#0065BD"/>
<rect x="57.5" y="74.9999" width="12.5" height="5" fill="#0065BD"/>
<rect x="10" y="84.9999" width="12.5" height="5" fill="#0065BD"/>
<rect x="25.833" y="84.9999" width="12.5" height="5" fill="#0065BD"/>
<rect x="41.667" y="84.9999" width="12.5" height="5" fill="#0065BD"/>
<rect x="57.5" y="84.9999" width="12.5" height="5" fill="#0065BD"/>
<rect x="10" y="28" width="60" height="27" fill="#0065BD"/>
<path d="M31.4893 43.8728H34.0442C33.9929 44.7102 33.7622 45.4536 33.3521 46.103C32.9476 46.7524 32.3808 47.2594 31.6516 47.624C30.9281 47.9886 30.0566 48.1709 29.0369 48.1709C28.2393 48.1709 27.5244 48.0342 26.8921 47.7607C26.2598 47.4816 25.7186 47.0828 25.2686 46.5645C24.8242 46.0461 24.4853 45.4194 24.2517 44.6846C24.0181 43.9497 23.9014 43.1265 23.9014 42.2151V41.3521C23.9014 40.4406 24.021 39.6174 24.2603 38.8826C24.5052 38.142 24.8527 37.5125 25.3027 36.9941C25.7585 36.4757 26.3025 36.077 26.9348 35.7979C27.5671 35.5187 28.2735 35.3792 29.054 35.3792C30.0907 35.3792 30.9652 35.5671 31.6772 35.9431C32.395 36.3191 32.9504 36.8375 33.3435 37.4983C33.7423 38.1591 33.9815 38.9111 34.0613 39.7542H31.4978C31.4693 39.2528 31.3696 38.8285 31.1987 38.481C31.0278 38.1278 30.7686 37.8629 30.4211 37.6863C30.0793 37.504 29.6236 37.4128 29.054 37.4128C28.6267 37.4128 28.2536 37.4926 27.9346 37.6521C27.6156 37.8116 27.3478 38.0537 27.1313 38.3784C26.9149 38.7031 26.7525 39.1133 26.6443 39.6089C26.5417 40.0988 26.4905 40.6742 26.4905 41.335V42.2151C26.4905 42.8588 26.5389 43.4256 26.6357 43.9155C26.7326 44.3997 26.8807 44.8099 27.0801 45.146C27.2852 45.4764 27.5472 45.7271 27.8662 45.8979C28.1909 46.0632 28.5811 46.1458 29.0369 46.1458C29.5723 46.1458 30.0138 46.0603 30.3613 45.8894C30.7088 45.7185 30.9737 45.465 31.156 45.1289C31.344 44.7928 31.4551 44.3741 31.4893 43.8728ZM42.2046 44.7444C42.2046 44.5222 42.1704 44.3228 42.1021 44.1462C42.0394 43.9639 41.9198 43.7987 41.7432 43.6506C41.5666 43.4968 41.3188 43.3459 40.9998 43.1978C40.6807 43.0496 40.2677 42.8958 39.7607 42.7363C39.1968 42.554 38.6613 42.349 38.1543 42.1211C37.653 41.8932 37.2087 41.6283 36.8213 41.3264C36.4396 41.0188 36.1377 40.6628 35.9155 40.2583C35.6991 39.8538 35.5908 39.3839 35.5908 38.8484C35.5908 38.33 35.7048 37.86 35.9326 37.4385C36.1605 37.0112 36.4795 36.6466 36.8896 36.3447C37.2998 36.0371 37.784 35.8007 38.3423 35.6355C38.9062 35.4703 39.5243 35.3877 40.1965 35.3877C41.1137 35.3877 41.9141 35.5529 42.5977 35.8833C43.2812 36.2137 43.811 36.6666 44.187 37.2419C44.5687 37.8173 44.7595 38.4753 44.7595 39.2158H42.2131C42.2131 38.8512 42.1362 38.5322 41.9824 38.2588C41.8343 37.9797 41.6064 37.7603 41.2988 37.6008C40.9969 37.4413 40.6152 37.3616 40.1538 37.3616C39.7095 37.3616 39.3392 37.4299 39.043 37.5667C38.7467 37.6977 38.5246 37.8771 38.3765 38.105C38.2284 38.3271 38.1543 38.5778 38.1543 38.8569C38.1543 39.0677 38.2056 39.2585 38.3081 39.4294C38.4163 39.6003 38.5758 39.7598 38.7866 39.908C38.9974 40.0561 39.2566 40.1956 39.5642 40.3267C39.8718 40.4577 40.2279 40.5859 40.6323 40.7112C41.3102 40.9163 41.9055 41.147 42.4182 41.4033C42.9366 41.6597 43.3695 41.9473 43.717 42.2664C44.0645 42.5854 44.3266 42.9471 44.5032 43.3516C44.6798 43.756 44.7681 44.2146 44.7681 44.7273C44.7681 45.2685 44.6627 45.7527 44.4519 46.1799C44.2411 46.6072 43.9364 46.9689 43.5376 47.2651C43.1388 47.5614 42.6632 47.7864 42.1106 47.9402C41.558 48.094 40.9399 48.1709 40.2563 48.1709C39.6411 48.1709 39.0344 48.0911 38.4363 47.9316C37.8381 47.7664 37.2941 47.5186 36.8042 47.1882C36.32 46.8578 35.9326 46.4363 35.6421 45.9236C35.3516 45.4109 35.2063 44.8042 35.2063 44.1035H37.7783C37.7783 44.4909 37.8381 44.8184 37.9578 45.0862C38.0774 45.3539 38.2454 45.5704 38.4619 45.7356C38.6841 45.9008 38.9461 46.0204 39.248 46.0945C39.5557 46.1685 39.8918 46.2056 40.2563 46.2056C40.7007 46.2056 41.0653 46.1429 41.3501 46.0176C41.6406 45.8923 41.8542 45.7185 41.991 45.4963C42.1334 45.2742 42.2046 45.0235 42.2046 44.7444ZM50.9973 45.4023L53.9282 35.5586H56.7822L52.45 48H50.5701L50.9973 45.4023ZM48.2971 35.5586L51.2195 45.4023L51.6638 48H49.7668L45.4602 35.5586H48.2971Z" fill="white"/>
</svg>
